gtk-icons/Papirus-Dark-GTK/16x16/actions/edit-paste-style.svg

<?xml version="1.0" encoding="UTF-8" standalone="no"?>
<!-- Created with Inkscape (http://www.inkscape.org/) -->
<svg id="svg3049" xmlns:rdf="http://www.w3.org/1999/02/22-rdf-syntax-ns#" xmlns="http://www.w3.org/2000/svg" height="16" width="16" version="1.1" xmlns:cc="http://creativecommons.org/ns#" xmlns:dc="http://purl.org/dc/elements/1.1/">
 <defs id="defs3051">
  <style id="current-color-scheme" type="text/css">.ColorScheme-Text {
        color:#4d4d4d;
      }
      .ColorScheme-Background {
        color:#eff0f1;
      }
      .ColorScheme-Highlight {
        color:#3daee9;
      }
      .ColorScheme-ViewText {
        color:#31363b;
      }
      .ColorScheme-ViewBackground {
        color:#fcfcfc;
      }
      .ColorScheme-ViewHover {
        color:#93cee9;
      }
      .ColorScheme-ViewFocus{
        color:#3daee9;
      }
      .ColorScheme-ButtonText {
        color:#31363b;
      }
      .ColorScheme-ButtonBackground {
        color:#eff0f1;
      }
      .ColorScheme-ButtonHover {
        color:#93cee9;
      }
      .ColorScheme-ButtonFocus{
        color:#3daee9;
      }</style>
 </defs>
 <metadata id="metadata3054">
  <rdf:RDF>
   <cc:Work rdf:about="">
    <dc:format>image/svg+xml</dc:format>
    <dc:type rdf:resource="http://purl.org/dc/dcmitype/StillImage"/>
    <dc:title/>
   </cc:Work>
  </rdf:RDF>
 </metadata>
 <g id="layer1" transform="translate(-421.71 -531.79)">
  <rect id="rect4035" class="ColorScheme-Text" height="11" width="0" y="547.79" x="404.71" fill="currentColor"/>
  <rect id="rect4035-5" class="ColorScheme-Text" height="11" width="0" y="545.74" x="422.76" fill="currentColor"/>
  <rect id="rect4035-8" class="ColorScheme-Text" height="11" width="0" y="547.79" x="404.71" fill="currentColor"/>
  <rect id="rect4035-59" class="ColorScheme-Text" height="11" width="0" y="547.79" x="404.71" fill="currentColor"/>
  <text id="text3781" style="word-spacing:0px;letter-spacing:0px" line-height="125%" font-size="9px" class="ColorScheme-Text" y="560.54797" x="420.15027" font-family="Sans" xml:space="preserve" fill="currentColor"><tspan id="tspan3783" x="420.15027" y="560.54797"/></text>
  <text id="text3781-8" style="word-spacing:0px;letter-spacing:0px" line-height="125%" font-size="9px" class="ColorScheme-Text" y="554.68463" x="420.88696" font-family="Sans" xml:space="preserve" fill="currentColor"><tspan id="tspan3783-1" x="420.88696" y="554.68463"/></text>
  <text id="text3781-4" style="word-spacing:0px;letter-spacing:0px" line-height="125%" font-size="9px" class="ColorScheme-Text" y="561.54797" x="414.15027" font-family="Sans" xml:space="preserve" fill="currentColor"><tspan id="tspan3783-13" x="414.15027" y="561.54797"/></text>
  <rect id="rect4035-9" class="ColorScheme-Text" height="11" width="0" y="547.79" x="404.71" fill="currentColor"/>
  <rect id="rect4035-5-7" class="ColorScheme-Text" height="11" width="0" y="545.74" x="422.76" fill="currentColor"/>
  <rect id="rect4035-9-0" class="ColorScheme-Text" height="11" width="0" y="547.79" x="384.71" fill="currentColor"/>
  <rect id="rect4035-5-7-5" class="ColorScheme-Text" height="11" width="0" y="545.74" x="402.76" fill="currentColor"/>
  <rect id="rect4035-3" class="ColorScheme-Text" height="11" width="0" y="547.79" x="404.71" fill="currentColor"/>
  <rect id="rect4035-5-4" class="ColorScheme-Text" height="11" width="0" y="545.74" x="422.76" fill="currentColor"/>
  <rect id="rect4035-8-7" class="ColorScheme-Text" height="11" width="0" y="547.79" x="404.71" fill="currentColor"/>
  <rect id="rect4035-59-1" class="ColorScheme-Text" height="11" width="0" y="547.79" x="404.71" fill="currentColor"/>
  <text id="text3781-1" style="word-spacing:0px;letter-spacing:0px" line-height="125%" font-size="9px" class="ColorScheme-Text" y="560.54797" x="420.15027" font-family="Sans" xml:space="preserve" fill="currentColor"><tspan id="tspan3783-8" x="420.15027" y="560.54797"/></text>
  <text id="text3781-8-2" style="word-spacing:0px;letter-spacing:0px" line-height="125%" font-size="9px" class="ColorScheme-Text" y="554.68463" x="420.88696" font-family="Sans" xml:space="preserve" fill="currentColor"><tspan id="tspan3783-1-6" x="420.88696" y="554.68463"/></text>
  <text id="text3781-4-7" style="word-spacing:0px;letter-spacing:0px" line-height="125%" font-size="9px" class="ColorScheme-Text" y="561.54797" x="414.15027" font-family="Sans" xml:space="preserve" fill="currentColor"><tspan id="tspan3783-13-8" x="414.15027" y="561.54797"/></text>
  <rect id="rect4035-9-08" class="ColorScheme-Text" height="11" width="0" y="547.79" x="404.71" fill="currentColor"/>
  <rect id="rect4035-5-7-8" class="ColorScheme-Text" height="11" width="0" y="545.74" x="422.76" fill="currentColor"/>
  <rect id="rect4035-9-0-2" class="ColorScheme-Text" height="11" width="0" y="547.79" x="384.71" fill="currentColor"/>
  <rect id="rect4035-5-7-5-2" class="ColorScheme-Text" height="11" width="0" y="545.74" x="402.76" fill="currentColor"/>
  <path id="path4172" opacity=".72" style="color:#4d4d4d" d="m7 1v4h-3v3h9v-3h-3v-4h-3zm-3 8c0 2.761-0.8954 6-2 6h5 1 3c1.105 0 2-3.239 2-6h-3-2-1-3z" transform="translate(421.71 531.79)" fill="#fff"/>
 </g>
</svg>

<?xml version="1.0" encoding="UTF-8" standalone="no"?>
<!-- Created with Inkscape (http://www.inkscape.org/) -->

<svg
   xmlns:dc="http://purl.org/dc/elements/1.1/"
   xmlns:cc="http://creativecommons.org/ns#"
   xmlns:rdf="http://www.w3.org/1999/02/22-rdf-syntax-ns#"
   xmlns:svg="http://www.w3.org/2000/svg"
   xmlns="http://www.w3.org/2000/svg"
   xmlns:sodipodi="http://sodipodi.sourceforge.net/DTD/sodipodi-0.dtd"
   xmlns:inkscape="http://www.inkscape.org/namespaces/inkscape"
   width="16"
   height="16"
   id="svg3049"
   version="1.1"
   inkscape:version="0.91 r13725"
   sodipodi:docname="edit-paste-style.svg"
   inkscape:export-filename="/home/uri/.kde/share/icons/NITRUX-KDE/16x16/actions/view-right-new.png"
   inkscape:export-xdpi="30"
   inkscape:export-ydpi="30">
  <defs
     id="defs3051">
    <style
       type="text/css"
       id="current-color-scheme">
      .ColorScheme-Text {
        color:#4d4d4d;
      }
      .ColorScheme-Background {
        color:#eff0f1;
      }
      .ColorScheme-Highlight {
        color:#3daee9;
      }
      .ColorScheme-ViewText {
        color:#31363b;
      }
      .ColorScheme-ViewBackground {
        color:#fcfcfc;
      }
      .ColorScheme-ViewHover {
        color:#93cee9;
      }
      .ColorScheme-ViewFocus{
        color:#3daee9;
      }
      .ColorScheme-ButtonText {
        color:#31363b;
      }
      .ColorScheme-ButtonBackground {
        color:#eff0f1;
      }
      .ColorScheme-ButtonHover {
        color:#93cee9;
      }
      .ColorScheme-ButtonFocus{
        color:#3daee9;
      }
      </style>
  </defs>
  <sodipodi:namedview
     id="base"
     pagecolor="#ffffff"
     bordercolor="#666666"
     borderopacity="1.0"
     inkscape:pageopacity="0.0"
     inkscape:pageshadow="2"
     inkscape:zoom="17.31"
     inkscape:cx="-6.0872314"
     inkscape:cy="11.11446"
     inkscape:document-units="px"
     inkscape:current-layer="layer1"
     showgrid="false"
     fit-margin-top="0"
     fit-margin-left="0"
     fit-margin-right="0"
     fit-margin-bottom="0"
     inkscape:window-width="1600"
     inkscape:window-height="847"
     inkscape:window-x="0"
     inkscape:window-y="30"
     inkscape:window-maximized="1"
     inkscape:showpageshadow="false"
     borderlayer="true"
     inkscape:snap-bbox="true"
     inkscape:snap-global="true"
     showguides="false">
    <inkscape:grid
       type="xygrid"
       id="grid4085" />
    <sodipodi:guide
       position="2,15"
       orientation="12,0"
       id="guide4075" />
    <sodipodi:guide
       position="17,2"
       orientation="0,12"
       id="guide4077" />
    <sodipodi:guide
       position="14,13"
       orientation="-12,0"
       id="guide4079" />
    <sodipodi:guide
       position="0,14"
       orientation="0,-12"
       id="guide4081" />
  </sodipodi:namedview>
  <metadata
     id="metadata3054">
    <rdf:RDF>
      <cc:Work
         rdf:about="">
        <dc:format>image/svg+xml</dc:format>
        <dc:type
           rdf:resource="http://purl.org/dc/dcmitype/StillImage" />
        <dc:title />
      </cc:Work>
    </rdf:RDF>
  </metadata>
  <g
     inkscape:label="Capa 1"
     inkscape:groupmode="layer"
     id="layer1"
     transform="translate(-421.71429,-531.79074)">
    <g
       transform="translate(418.71429,-499.57146)"
       id="layer1-1"
       inkscape:label="Capa 1" />
    <g
       style="font-size:14.99414538999999991px;font-style:normal;font-weight:normal;line-height:125%;letter-spacing:0px;word-spacing:0px;fill:currentColor;fill-opacity:1;stroke:none;font-family:Sans;color:#ffffff;fill-rule:nonzero;marker:none;visibility:visible;display:inline;overflow:visible;enable-background:accumulate"
       id="text6323"
       transform="matrix(1.0137978,0,0,1.0137978,-5.7339861,-8.5306811)"
       class="ColorScheme-Text" />
    <rect
       style="fill:currentColor;fill-opacity:1;stroke:none"
       id="rect4035"
       width="0"
       height="10.999983"
       x="404.71429"
       y="547.79071"
       class="ColorScheme-Text" />
    <rect
       style="fill:currentColor;fill-opacity:1;stroke:none"
       id="rect4035-5"
       width="0"
       height="10.999983"
       x="422.75507"
       y="545.73938"
       class="ColorScheme-Text" />
    <rect
       style="fill:currentColor;fill-opacity:1;stroke:none"
       id="rect4035-8"
       width="0"
       height="10.999983"
       x="404.71429"
       y="547.79071"
       class="ColorScheme-Text" />
    <rect
       style="fill:currentColor;fill-opacity:1;stroke:none"
       id="rect4035-59"
       width="0"
       height="10.999983"
       x="404.71429"
       y="547.79071"
       class="ColorScheme-Text" />
    <text
       sodipodi:linespacing="125%"
       id="text3781"
       y="560.54797"
       x="420.15027"
       style="font-size:9px;font-style:normal;font-weight:normal;line-height:125%;letter-spacing:0px;word-spacing:0px;fill:currentColor;fill-opacity:1;stroke:none;font-family:Sans"
       xml:space="preserve"
       class="ColorScheme-Text"><tspan
         id="tspan3783"
         sodipodi:role="line"
         x="420.15027"
         y="560.54797" /></text>
    <text
       sodipodi:linespacing="125%"
       id="text3781-8"
       y="554.68463"
       x="420.88696"
       style="font-size:9px;font-style:normal;font-weight:normal;line-height:125%;letter-spacing:0px;word-spacing:0px;fill:currentColor;fill-opacity:1;stroke:none;font-family:Sans"
       xml:space="preserve"
       class="ColorScheme-Text"><tspan
         id="tspan3783-1"
         sodipodi:role="line"
         x="420.88696"
         y="554.68463" /></text>
    <text
       sodipodi:linespacing="125%"
       id="text3781-4"
       y="561.54797"
       x="414.15027"
       style="font-size:9px;font-style:normal;font-weight:normal;line-height:125%;letter-spacing:0px;word-spacing:0px;fill:currentColor;fill-opacity:1;stroke:none;font-family:Sans"
       xml:space="preserve"
       class="ColorScheme-Text"><tspan
         id="tspan3783-13"
         sodipodi:role="line"
         x="414.15027"
         y="561.54797" /></text>
    <rect
       style="fill:currentColor;fill-opacity:1;stroke:none"
       id="rect4035-9"
       width="0"
       height="10.999983"
       x="404.71429"
       y="547.79071"
       class="ColorScheme-Text" />
    <rect
       style="fill:currentColor;fill-opacity:1;stroke:none"
       id="rect4035-5-7"
       width="0"
       height="10.999983"
       x="422.75507"
       y="545.73938"
       class="ColorScheme-Text" />
    <rect
       style="fill:currentColor;fill-opacity:1;stroke:none"
       id="rect4035-9-0"
       width="0"
       height="10.999983"
       x="384.71429"
       y="547.79071"
       class="ColorScheme-Text" />
    <rect
       style="fill:currentColor;fill-opacity:1;stroke:none"
       id="rect4035-5-7-5"
       width="0"
       height="10.999983"
       x="402.75507"
       y="545.73938"
       class="ColorScheme-Text" />
    <rect
       style="fill:currentColor;fill-opacity:1;stroke:none"
       id="rect4035-3"
       width="0"
       height="10.999983"
       x="404.71429"
       y="547.79071"
       class="ColorScheme-Text" />
    <rect
       style="fill:currentColor;fill-opacity:1;stroke:none"
       id="rect4035-5-4"
       width="0"
       height="10.999983"
       x="422.75507"
       y="545.73938"
       class="ColorScheme-Text" />
    <rect
       style="fill:currentColor;fill-opacity:1;stroke:none"
       id="rect4035-8-7"
       width="0"
       height="10.999983"
       x="404.71429"
       y="547.79071"
       class="ColorScheme-Text" />
    <rect
       style="fill:currentColor;fill-opacity:1;stroke:none"
       id="rect4035-59-1"
       width="0"
       height="10.999983"
       x="404.71429"
       y="547.79071"
       class="ColorScheme-Text" />
    <text
       sodipodi:linespacing="125%"
       id="text3781-1"
       y="560.54797"
       x="420.15027"
       style="font-size:9px;font-style:normal;font-weight:normal;line-height:125%;letter-spacing:0px;word-spacing:0px;fill:currentColor;fill-opacity:1;stroke:none;font-family:Sans"
       xml:space="preserve"
       class="ColorScheme-Text"><tspan
         id="tspan3783-8"
         sodipodi:role="line"
         x="420.15027"
         y="560.54797" /></text>
    <text
       sodipodi:linespacing="125%"
       id="text3781-8-2"
       y="554.68463"
       x="420.88696"
       style="font-size:9px;font-style:normal;font-weight:normal;line-height:125%;letter-spacing:0px;word-spacing:0px;fill:currentColor;fill-opacity:1;stroke:none;font-family:Sans"
       xml:space="preserve"
       class="ColorScheme-Text"><tspan
         id="tspan3783-1-6"
         sodipodi:role="line"
         x="420.88696"
         y="554.68463" /></text>
    <text
       sodipodi:linespacing="125%"
       id="text3781-4-7"
       y="561.54797"
       x="414.15027"
       style="font-size:9px;font-style:normal;font-weight:normal;line-height:125%;letter-spacing:0px;word-spacing:0px;fill:currentColor;fill-opacity:1;stroke:none;font-family:Sans"
       xml:space="preserve"
       class="ColorScheme-Text"><tspan
         id="tspan3783-13-8"
         sodipodi:role="line"
         x="414.15027"
         y="561.54797" /></text>
    <rect
       style="fill:currentColor;fill-opacity:1;stroke:none"
       id="rect4035-9-08"
       width="0"
       height="10.999983"
       x="404.71429"
       y="547.79071"
       class="ColorScheme-Text" />
    <rect
       style="fill:currentColor;fill-opacity:1;stroke:none"
       id="rect4035-5-7-8"
       width="0"
       height="10.999983"
       x="422.75507"
       y="545.73938"
       class="ColorScheme-Text" />
    <rect
       style="fill:currentColor;fill-opacity:1;stroke:none"
       id="rect4035-9-0-2"
       width="0"
       height="10.999983"
       x="384.71429"
       y="547.79071"
       class="ColorScheme-Text" />
    <rect
       style="fill:currentColor;fill-opacity:1;stroke:none"
       id="rect4035-5-7-5-2"
       width="0"
       height="10.999983"
       x="402.75507"
       y="545.73938"
       class="ColorScheme-Text" />
    <path
       style="color:#4d4d4d;display:inline;overflow:visible;visibility:visible;fill:#ffffff;fill-opacity:1;fill-rule:nonzero;stroke:none;stroke-width:0;marker:none;enable-background:accumulate;opacity:0.72"
       d="M 7 1 L 7 5 L 4 5 L 4 8 L 13 8 L 13 5 L 10 5 L 10 1 L 7 1 z M 4 9 C 4 11.76142 3.10457 15 2 15 L 7 15 L 8 15 L 11 15 C 12.10456 15 13 11.76142 13 9 L 10 9 L 8 9 L 7 9 L 4 9 z "
       transform="translate(421.71429,531.79074)"
       id="path4172" />
  </g>
</svg>
